Super Ultra Flat Numix Remix/scalable/apps/scalable/calibre.svg

<?xml version="1.0" encoding="UTF-8" standalone="no"?>
<!-- Generator: flash2svg, http://dissentgraphics.com/tools/flash2svg -->

<svg
   xmlns:dc="http://purl.org/dc/elements/1.1/"
   xmlns:cc="http://creativecommons.org/ns#"
   xmlns:rdf="http://www.w3.org/1999/02/22-rdf-syntax-ns#"
   xmlns:svg="http://www.w3.org/2000/svg"
   xmlns="http://www.w3.org/2000/svg"
   xmlns:sodipodi="http://sodipodi.sourceforge.net/DTD/sodipodi-0.dtd"
   xmlns:inkscape="http://www.inkscape.org/namespaces/inkscape"
   id="Calibre"
   image-rendering="optimizeSpeed"
   version="1.1"
   style="background-color:#ffffff"
   x="0px"
   y="0px"
   width="1024px"
   height="1024px"
   viewBox="0 0 1024 1024"
   enable-background="new 0 0 1024 1024"
   inkscape:version="0.91 r13725"
   sodipodi:docname="calibre.svg">
  <metadata
     id="metadata53">
    <rdf:RDF>
      <cc:Work
         rdf:about="">
        <dc:format>image/svg+xml</dc:format>
        <dc:type
           rdf:resource="http://purl.org/dc/dcmitype/StillImage" />
      </cc:Work>
    </rdf:RDF>
  </metadata>
  <sodipodi:namedview
     pagecolor="#ffffff"
     bordercolor="#666666"
     borderopacity="1"
     objecttolerance="10"
     gridtolerance="10"
     guidetolerance="10"
     inkscape:pageopacity="0"
     inkscape:pageshadow="2"
     inkscape:window-width="1920"
     inkscape:window-height="1026"
     id="namedview51"
     showgrid="false"
     inkscape:zoom="0.4609375"
     inkscape:cx="420.63848"
     inkscape:cy="486.51854"
     inkscape:window-x="0"
     inkscape:window-y="0"
     inkscape:window-maximized="1"
     inkscape:current-layer="Calibre" />
  <defs
     transform="matrix(1 0 0 1 0 0) "
     id="defs3" />
  <g
     id="g4185">
    <path
       style="fill:#ffffd2;fill-opacity:1"
       inkscape:connector-curvature="0"
       d="m 958.55,354.65 c -0.3,-0.75 -0.6,-1.65 -0.9,-2.55 -6.45,-18.25 -14.15,-36.05 -23.15,-53.65 -3.8,-7.4 -7.95,-14.95 -12.3,-22.4 -20.3,-34.5 -45.8,-67.2 -76.35,-97.75 C 773.4,105.85 689.1,61.85 593.05,46.4 c -0.3,-0.05 -0.6,-0.1 -0.85,-0.15 -16.25,-2.6 -32.8,-4.4 -50.05,-5.35 -9.7,-0.55 -19.85,-0.85 -30.1,-0.85 -9.35,0 -18.6,0.25 -27.9,0.75 C 365.8,46.9 263.85,92.75 178.3,178.3 121.8,234.8 82.65,298.45 60.85,369 q -20.8,67.2 -20.8,143.05 c 0,61.95 10.45,119.6 30.95,172.2 2.7,6.95 5.45,13.5 8.35,20 3.1,6.95 6.4,13.75 9.55,20 l -0.025,0 143.175,0 703.175,0 0.025,0 c 3.3,-6.55 6.5,-13.2 9.55,-20 2.95,-6.6 5.7,-13.25 8.35,-20 0,-0.05 0,-0.15 0.05,-0.2 3.95,-10.25 7.55,-20.65 10.75,-31.15 2.2,-7.3 4.25,-14.7 6.15,-22.3 7.85,-31.85 12.45,-65.25 13.65,-100.05 0.2,-6.05 0.3,-12.25 0.3,-18.5 0,-0.65 0,-1.35 0,-2 0,-0.35 0,-0.65 0,-1 -0.2,-40.65 -4.95,-79.5 -14.3,-117 -1.1,-4.35 -2.35,-9 -3.65,-13.6 -2.25,-7.85 -4.75,-15.8 -7.55,-23.8 z m -449.5,629.4 c 1.2,0 2.1,0 3,0 10.3,0 20.5,-0.3 30.1,-0.8 2.5,-0.15 4.75,-0.3 6.95,-0.45 20.2,-1.45 39.9,-4.05 58.7,-7.7 7.95,-1.55 15.8,-3.3 23.4,-5.15 30.45,-7.65 59.55,-18.3 87.25,-31.8 12.8,-6.3 25.35,-13.2 37.6,-20.7 3.05,-1.9 6.05,-3.8 9.05,-5.75 14.65,-9.5 28.65,-19.75 42.25,-30.9 13.25,-10.9 26.05,-22.5 38.5,-34.95 11.85,-11.85 22.95,-24.05 33.3,-36.5 3.55,-4.3 7,-8.6 10.45,-13.1 l -0.025,0 -585.525,0 -169.475,0 0.025,0 c 13.4,17.4 27.85,33.75 43.7,49.6 28.4,28.4 58.65,52.45 89.8,71.55 3.35,2 6.25,3.75 9.15,5.45 19.75,11.55 39.65,21.25 60.15,29.3 6.45,2.6 12.6,4.85 18.8,6.95 16.2,5.55 32.75,10.15 49,13.75 25.95,5.6 52.05,9.1 78.95,10.5 0.15,0 0.25,0 0.4,0 8.5,0.45 16.6,0.7 24.5,0.7 z"
       id="path1" />
    <path
       style="fill:#ae7f3c;fill-opacity:1"
       inkscape:connector-curvature="0"
       d="m 928.9,736.25 c 2.15,-3.95 4.25,-7.95 6.35,-12 l -0.025,0 -703.175,0 72,72 585.525,0 0.025,0 c 10.95,-14.15 21,-28.85 30.1,-44 3.2,-5.35 6.3,-10.75 9.2,-16 z"
       id="path2" />
    <path
       style="fill:#d39847;fill-opacity:1"
       inkscape:connector-curvature="0"
       d="m 88.9,724.25 c 2.2,4.3 4.25,8.2 6.35,12 3.1,5.65 6.1,10.85 9.2,16 9.2,15.25 19.3,30.05 30.15,44 l -0.025,0 169.475,0 -72,-72 -143.175,0"
       id="path3" />
    <g
       transform="translate(8.494534,-0.107653)"
       id="Calque.__211">
      <g
         id="shape44">
        <path
           style="fill:#46331b;fill-opacity:1"
           inkscape:connector-curvature="0"
           d="m 354,240.1 q 0,-20 -20,-20 l -130.55,0 c -13.35,0 -20,6.65 -20,20 l 0,464.1 c 0,13.35 6.65,20 20,20 l 130.55,0 c 13.35,0 20,-6.65 20,-20 l 0,-464.1 z"
           id="path31" />
      </g>
    </g>
    <g
       transform="translate(-4.4373416,-2.107653)"
       id="Symbole.__2039">
      <g
         id="shape45">
        <path
           style="fill:#aa8356;fill-opacity:1"
           inkscape:connector-curvature="0"
           d="m 307.7,323.4 c -3.9,-3.9 -8.6,-5.85 -14.15,-5.85 l -18,0 c -5.55,0 -10.25,1.95 -14.15,5.85 -3.9,3.9 -5.85,8.6 -5.85,14.15 l 0,18 c 0,5.55 1.95,10.25 5.85,14.15 3.9,3.9 8.6,5.85 14.15,5.85 l 18,0 c 5.55,0 10.25,-1.95 14.15,-5.85 3.9,-3.9 5.85,-8.6 5.85,-14.15 l 0,-18 c 0,-5.55 -1.95,-10.25 -5.85,-14.15 z m 0,116 c -3.9,-3.9 -8.6,-5.85 -14.15,-5.85 l -18,0 c -5.55,0 -10.25,1.95 -14.15,5.85 -3.9,3.9 -5.85,8.6 -5.85,14.15 l 0,18 c 0,5.55 1.95,10.25 5.85,14.15 3.9,3.9 8.6,5.85 14.15,5.85 l 18,0 c 5.55,0 10.25,-1.95 14.15,-5.85 3.9,-3.9 5.85,-8.6 5.85,-14.15 l 0,-18 c 0,-5.55 -1.95,-10.25 -5.85,-14.15 z m 5.85,130.15 c 0,-5.55 -1.95,-10.25 -5.85,-14.15 -3.9,-3.9 -8.6,-5.85 -14.15,-5.85 l -18,0 c -5.55,0 -10.25,1.95 -14.15,5.85 -3.9,3.9 -5.85,8.6 -5.85,14.15 l 0,18 c 0,5.55 1.95,10.25 5.85,14.15 3.9,3.9 8.6,5.85 14.15,5.85 l 18,0 c 5.55,0 10.25,-1.95 14.15,-5.85 3.9,-3.9 5.85,-8.6 5.85,-14.15 l 0,-18 z m 0,116 c 0,-5.55 -1.95,-10.25 -5.85,-14.15 -3.9,-3.9 -8.6,-5.85 -14.15,-5.85 l -18,0 c -5.55,0 -10.25,1.95 -14.15,5.85 -3.9,3.9 -5.85,8.6 -5.85,14.15 l 0,18 c 0,5.55 1.95,10.25 5.85,14.15 3.9,3.9 8.6,5.85 14.15,5.85 l 18,0 c 5.55,0 10.25,-1.95 14.15,-5.85 3.9,-3.9 5.85,-8.6 5.85,-14.15 l 0,-18 z"
           id="path32" />
      </g>
    </g>
    <g
       id="circle2">
      <g
         overflow="visible"
         id="Symbole.__2032_1">
        <g
           id="Calque.__212">
          <g
             id="shape46">
            <path
               d="M530,332 C530,318.65 523.35,312 510,312 L384,312 Q364,312 364,332 L364,704.2 C364,717.55 370.65,724.2 384,724.2 L510,724.2 C523.35,724.2 530,717.55 530,704.2 L530,332z"
               fill-opacity="1"
               fill="#485052"
               id="path33" />
          </g>
        </g>
        <g
           id="Calque.__213">
          <g
             id="shape47">
            <path
               d="M530.5,379.1 L530.5,353.1 364.5,353.1 364.5,379.1 530.5,379.1z M530.5,682.1 L530.5,656.1 364.5,656.1 364.5,682.1 530.5,682.1z"
               fill-opacity="1"
               fill="#CBDEE3"
               id="path34" />
          </g>
        </g>
      </g>
    </g>
    <g
       id="Calque.__205">
      <g
         overflow="visible"
         id="Symbole.__2034_1">
        <g
           id="Calque.__214">
          <g
             id="shape48">
            <path
               d="M809.87,391.327 L803.241,374.485 C798.351,362.062 789.728,358.31 777.305,363.199 L693.559,396.163 C681.137,401.052 677.385,409.676 682.274,422.098 L688.903,438.94 809.87,391.327z M900.441,676.037 C912.863,671.148 916.615,662.524 911.726,650.102 L817.195,409.937 696.229,457.55 790.759,697.715 C795.649,710.138 804.272,713.89 816.695,709.001 L900.441,676.037z M854.042,587.37 C866.296,592.703 874.91,601.617 879.818,614.086 884.725,626.555 884.499,638.949 879.167,651.204 873.835,663.458 864.92,672.072 852.451,676.979 839.982,681.887 827.588,681.661 815.334,676.329 803.079,670.997 794.466,662.082 789.558,649.613 784.65,637.144 784.876,624.75 790.209,612.496 795.541,600.241 804.456,591.628 816.924,586.72 829.393,581.812 841.787,582.038 854.042,587.37z"
               fill-opacity="1"
               fill="#3C5687"
               id="path35" />
            <path
               d="M817.195,409.937 L809.87,391.327 688.903,438.94 696.229,457.55 817.195,409.937z"
               fill-opacity="1"
               fill="#5377BB"
               id="path36" />
            <path
               d="M854.042,587.37 C841.787,582.038 829.393,581.812 816.924,586.72 804.456,591.628 795.541,600.241 790.209,612.496 784.876,624.75 784.65,637.144 789.558,649.613 794.466,662.082 803.079,670.997 815.334,676.329 827.588,681.661 839.982,681.887 852.451,676.979 864.92,672.072 873.835,663.458 879.167,651.204 884.499,638.949 884.725,626.555 879.818,614.086 874.91,601.617 866.296,592.703 854.042,587.37z"
               fill-opacity="1"
               fill="#597BB8"
               id="path37" />
          </g>
        </g>
      </g>
    </g>
    <g
       id="head">
      <g
         overflow="visible"
         id="Symbole.__2036_1">
        <g
           id="Calque.__215">
          <g
             id="shape49">
            <path
               d="M566.824,253.662 C562.465,250.284 557.557,248.94 552.051,249.638 L548.083,250.141 Q539.848,251.184 534.78,257.723 C531.402,262.082 530.058,266.99 530.756,272.496 L575.53,625.82 619.181,620.289 574.407,266.965 C573.709,261.459 571.183,257.041 566.824,253.662z"
               fill-opacity="1"
               fill="#5B574E"
               id="path38" />
            <path
               d="M611.917,722.059 C617.423,721.362 621.841,718.836 625.22,714.477 628.598,710.118 629.942,705.21 629.244,699.704 L619.181,620.289 575.53,625.82 585.593,705.235 C586.291,710.741 588.817,715.159 593.176,718.538 597.535,721.916 602.443,723.26 607.949,722.562 L611.917,722.059z"
               fill-opacity="1"
               fill="#8E887B"
               id="path39" />
          </g>
        </g>
      </g>
      <g
         overflow="visible"
         id="Symbole.__2036_2">
        <g
           id="Calque.__216">
          <g
             id="shape50">
            <path
               d="M623.31,255.355 C618.626,252.443 613.605,251.612 608.201,252.873 L604.305,253.782 Q596.222,255.667 591.854,262.693 C588.942,267.378 588.111,272.398 589.372,277.803 L670.291,624.638 713.14,614.641 632.222,267.806 C630.961,262.401 627.994,258.267 623.31,255.355z"
               fill-opacity="1"
               fill="#5B574E"
               id="path40" />
            <path
               d="M716.395,716.618 C721.8,715.357 725.934,712.391 728.846,707.707 731.758,703.022 732.589,698.002 731.328,692.597 L713.14,614.641 670.291,624.638 688.478,702.594 C689.739,707.999 692.706,712.133 697.39,715.045 702.074,717.957 707.095,718.788 712.499,717.527 L716.395,716.618z"
               fill-opacity="1"
               fill="#8E887B"
               id="path41" />
          </g>
        </g>
      </g>
    </g>
  </g>
</svg>

<?xml version="1.0" encoding="UTF-8" standalone="no"?>
<!-- Generator: flash2svg, http://dissentgraphics.com/tools/flash2svg -->

<svg
   xmlns:dc="http://purl.org/dc/elements/1.1/"
   xmlns:cc="http://creativecommons.org/ns#"
   xmlns:rdf="http://www.w3.org/1999/02/22-rdf-syntax-ns#"
   xmlns:svg="http://www.w3.org/2000/svg"
   xmlns="http://www.w3.org/2000/svg"
   xmlns:sodipodi="http://sodipodi.sourceforge.net/DTD/sodipodi-0.dtd"
   xmlns:inkscape="http://www.inkscape.org/namespaces/inkscape"
   id="Calibre"
   image-rendering="optimizeSpeed"
   version="1.1"
   style="background-color:#ffffff"
   x="0px"
   y="0px"
   width="1024px"
   height="1024px"
   viewBox="0 0 1024 1024"
   enable-background="new 0 0 1024 1024"
   inkscape:version="0.91 r"
   sodipodi:docname="calibre.svg">
  <metadata
     id="metadata53">
    <rdf:RDF>
      <cc:Work
         rdf:about="">
        <dc:format>image/svg+xml</dc:format>
        <dc:type
           rdf:resource="http://purl.org/dc/dcmitype/StillImage" />
      </cc:Work>
    </rdf:RDF>
  </metadata>
  <sodipodi:namedview
     pagecolor="#ffffff"
     bordercolor="#666666"
     borderopacity="1"
     objecttolerance="10"
     gridtolerance="10"
     guidetolerance="10"
     inkscape:pageopacity="0"
     inkscape:pageshadow="2"
     inkscape:window-width="1148"
     inkscape:window-height="657"
     id="namedview51"
     showgrid="false"
     inkscape:zoom="0.4609375"
     inkscape:cx="788.36729"
     inkscape:cy="486.51854"
     inkscape:window-x="15"
     inkscape:window-y="39"
     inkscape:window-maximized="0"
     inkscape:current-layer="Calibre" />
  <defs
     transform="matrix(1 0 0 1 0 0) "
     id="defs3" />
  <g
     id="shadow">
    <g
       id="shape">
      <path
         id="path"
         fill="#000000"
         fill-opacity="0.09803921568627451"
         d="M969.65,351.3 Q961.05,330.45 950.25,310.45 C946.2,302.9 941.9,295.4 937.35,288.05 917.8,256.35 893.95,226.4 865.8,198.25 773.65,106.1 662.35,60 532,60 401.65,60 290.4,106.1 198.25,198.25 106.1,290.4 60,401.65 60,532 60,662.35 106.1,773.65 198.25,865.8 290.4,957.95 401.65,1004 532,1004 662.35,1004 773.65,957.95 865.8,865.8 916.55,815 953.35,758.4 976.15,696.05 994.7,645.2 1004,590.55 1004,532 1004,487.1 998.55,444.45 987.6,404.05 986.35,399.5 985.05,394.95 983.7,390.45 979.6,377.15 974.9,364.1 969.65,351.3z" />
    </g>
  </g>
  <g
     id="circle">
    <g
       id="shape2">
      <path
         id="path1"
         fill="#43414A"
         fill-opacity="1"
         d="M958.55,354.65 C958.25,353.9 957.95,353 957.65,352.1 951.2,333.85 943.5,316.05 934.5,298.45 930.7,291.05 926.55,283.5 922.2,276.05 901.9,241.55 876.4,208.85 845.85,178.3 773.4,105.85 689.1,61.85 593.05,46.4 592.75,46.35 592.45,46.3 592.2,46.25 575.95,43.65 559.4,41.85 542.15,40.9 532.45,40.35 522.3,40.05 512.05,40.05 502.7,40.05 493.45,40.3 484.15,40.8 365.8,46.9 263.85,92.75 178.3,178.3 121.8,234.8 82.65,298.45 60.85,369 Q40.05,436.2 40.05,512.05 C40.05,574 50.5,631.65 71,684.25 73.7,691.2 76.45,697.75 79.35,704.25 82.45,711.2 85.75,718 88.9,724.25 L88.875,724.25 L232.05,724.25 935.225,724.25 L935.25,724.25 C938.55,717.7 941.75,711.05 944.8,704.25 947.75,697.65 950.5,691 953.15,684.25 953.15,684.2 953.15,684.1 953.2,684.05 957.15,673.8 960.75,663.4 963.95,652.9 966.15,645.6 968.2,638.2 970.1,630.6 977.95,598.75 982.55,565.35 983.75,530.55 983.95,524.5 984.05,518.3 984.05,512.05 984.05,511.4 984.05,510.7 984.05,510.05 984.05,509.7 984.05,509.4 984.05,509.05 983.85,468.4 979.1,429.55 969.75,392.05 968.65,387.7 967.4,383.05 966.1,378.45 963.85,370.6 961.35,362.65 958.55,354.65z M509.05,984.05 C510.25,984.05 511.15,984.05 512.05,984.05 522.35,984.05 532.55,983.75 542.15,983.25 544.65,983.1 546.9,982.95 549.1,982.8 569.3,981.35 589,978.75 607.8,975.1 615.75,973.55 623.6,971.8 631.2,969.95 661.65,962.3 690.75,951.65 718.45,938.15 731.25,931.85 743.8,924.95 756.05,917.45 759.1,915.55 762.1,913.65 765.1,911.7 779.75,902.2 793.75,891.95 807.35,880.8 820.6,869.9 833.4,858.3 845.85,845.85 857.7,834 868.8,821.8 879.15,809.35 882.7,805.05 886.15,800.75 889.6,796.25 L889.575,796.25 L304.05,796.25 134.575,796.25 L134.6,796.25 C148,813.65 162.45,830 178.3,845.85 206.7,874.25 236.95,898.3 268.1,917.4 271.45,919.4 274.35,921.15 277.25,922.85 297,934.4 316.9,944.1 337.4,952.15 343.85,954.75 350,957 356.2,959.1 372.4,964.65 388.95,969.25 405.2,972.85 431.15,978.45 457.25,981.95 484.15,983.35 484.3,983.35 484.4,983.35 484.55,983.35 493.05,983.8 501.15,984.05 509.05,984.05z" />
      <path
         id="path2"
         fill="#AE7F3C"
         fill-opacity="1"
         d="M928.9,736.25 C931.05,732.3 933.15,728.3 935.25,724.25 L935.225,724.25 L232.05,724.25 304.05,796.25 889.575,796.25 L889.6,796.25 C900.55,782.1 910.6,767.4 919.7,752.25 922.9,746.9 926,741.5 928.9,736.25z" />
      <path
         id="path3"
         fill="#D39847"
         fill-opacity="1"
         d="M88.9,724.25 C91.1,728.55 93.15,732.45 95.25,736.25 98.35,741.9 101.35,747.1 104.45,752.25 113.65,767.5 123.75,782.3 134.6,796.25 L134.575,796.25 L304.05,796.25 232.05,724.25 88.875,724.25" />
    </g>
  </g>
  <g
     id="circle1">
    <g
       id="shape9">
      <path
         id="path6"
         fill="#000000"
         fill-opacity="0.2"
         d="M509.05,984.05 Q510.55,984.05 512.05,984.05 C522.35,984.05 532.55,983.75 542.15,983.25 544.65,983.1 546.9,982.95 549.1,982.8 569.3,981.35 589,978.75 607.8,975.1 615.75,973.55 623.6,971.8 631.2,969.95 661.65,962.3 690.75,951.65 718.45,938.15 731.25,931.85 743.8,924.95 756.05,917.45 759.1,915.55 762.1,913.65 765.1,911.7 779.75,902.2 793.75,891.95 807.35,880.8 820.6,869.9 833.4,858.3 845.85,845.85 857.7,834 868.8,821.8 879.15,809.35 882.7,805.05 886.15,800.75 889.6,796.25 L889.575,796.25 L134.575,796.25 L134.6,796.25 C147.1,812.5 160.55,827.8 174.8,842.35 176.2,843.75 177.25,844.8 178.3,845.85 206.7,874.25 236.95,898.3 268.1,917.4 271.45,919.4 274.35,921.15 277.25,922.85 297,934.4 316.9,944.1 337.4,952.15 343.85,954.75 350,957 356.2,959.1 372.4,964.65 388.95,969.25 405.2,972.85 431.15,978.45 457.25,981.95 484.15,983.35 484.3,983.35 484.4,983.35 484.55,983.35 493.05,983.8 501.15,984.05 509.05,984.05z M953.2,684.05 C957.15,673.8 960.75,663.4 963.95,652.9 966.15,645.6 968.2,638.2 970.1,630.6 975.5,608.8 979.35,586.2 981.7,562.7 981.9,560.05 982.15,557.25 982.4,554.4 982.45,554.1 982.45,553.8 982.5,553.5 L982.475,553.475 L799.05,370.05 775.05,406.05 627.05,258.05 609.05,299.05 577.05,267.05 555.95,352.05 534.95,331.05 443.375,320.375 455.75,332.75 432.05,319.05 443.375,320.375 350.05,227.05 208.425,724.25 935.225,724.25 L935.25,724.25 C938.55,717.7 941.75,711.05 944.8,704.25 947.75,697.65 950.5,691 953.15,684.25 953.15,684.2 953.15,684.1 953.2,684.05z" />
      <path
         id="path7"
         fill="#7E8197"
         fill-opacity="1"
         d="M443.375,320.375 L432.05,319.05 455.75,332.75 443.375,320.375z" />
    </g>
  </g>
  <g
     id="Calque.__211"
     transform="translate(8.494534,-0.107653)">
    <g
       id="shape44">
      <path
         id="path31"
         d="m 354,240.1 q 0,-20 -20,-20 l -130.55,0 c -13.35,0 -20,6.65 -20,20 l 0,464.1 c 0,13.35 6.65,20 20,20 l 130.55,0 c 13.35,0 20,-6.65 20,-20 l 0,-464.1 z"
         inkscape:connector-curvature="0"
         style="fill:#46331b;fill-opacity:1" />
    </g>
  </g>
  <g
     id="Symbole.__2039"
     transform="translate(-4.4373416,-2.107653)">
    <g
       id="shape45">
      <path
         id="path32"
         d="m 307.7,323.4 c -3.9,-3.9 -8.6,-5.85 -14.15,-5.85 l -18,0 c -5.55,0 -10.25,1.95 -14.15,5.85 -3.9,3.9 -5.85,8.6 -5.85,14.15 l 0,18 c 0,5.55 1.95,10.25 5.85,14.15 3.9,3.9 8.6,5.85 14.15,5.85 l 18,0 c 5.55,0 10.25,-1.95 14.15,-5.85 3.9,-3.9 5.85,-8.6 5.85,-14.15 l 0,-18 c 0,-5.55 -1.95,-10.25 -5.85,-14.15 z m 0,116 c -3.9,-3.9 -8.6,-5.85 -14.15,-5.85 l -18,0 c -5.55,0 -10.25,1.95 -14.15,5.85 -3.9,3.9 -5.85,8.6 -5.85,14.15 l 0,18 c 0,5.55 1.95,10.25 5.85,14.15 3.9,3.9 8.6,5.85 14.15,5.85 l 18,0 c 5.55,0 10.25,-1.95 14.15,-5.85 3.9,-3.9 5.85,-8.6 5.85,-14.15 l 0,-18 c 0,-5.55 -1.95,-10.25 -5.85,-14.15 z m 5.85,130.15 c 0,-5.55 -1.95,-10.25 -5.85,-14.15 -3.9,-3.9 -8.6,-5.85 -14.15,-5.85 l -18,0 c -5.55,0 -10.25,1.95 -14.15,5.85 -3.9,3.9 -5.85,8.6 -5.85,14.15 l 0,18 c 0,5.55 1.95,10.25 5.85,14.15 3.9,3.9 8.6,5.85 14.15,5.85 l 18,0 c 5.55,0 10.25,-1.95 14.15,-5.85 3.9,-3.9 5.85,-8.6 5.85,-14.15 l 0,-18 z m 0,116 c 0,-5.55 -1.95,-10.25 -5.85,-14.15 -3.9,-3.9 -8.6,-5.85 -14.15,-5.85 l -18,0 c -5.55,0 -10.25,1.95 -14.15,5.85 -3.9,3.9 -5.85,8.6 -5.85,14.15 l 0,18 c 0,5.55 1.95,10.25 5.85,14.15 3.9,3.9 8.6,5.85 14.15,5.85 l 18,0 c 5.55,0 10.25,-1.95 14.15,-5.85 3.9,-3.9 5.85,-8.6 5.85,-14.15 l 0,-18 z"
         inkscape:connector-curvature="0"
         style="fill:#aa8356;fill-opacity:1" />
    </g>
  </g>
  <g
     id="circle2">
    <g
       id="Symbole.__2032_1"
       overflow="visible">
      <g
         id="Calque.__212">
        <g
           id="shape46">
          <path
             id="path33"
             fill="#485052"
             fill-opacity="1"
             d="M530,332 C530,318.65 523.35,312 510,312 L384,312 Q364,312 364,332 L364,704.2 C364,717.55 370.65,724.2 384,724.2 L510,724.2 C523.35,724.2 530,717.55 530,704.2 L530,332z" />
        </g>
      </g>
      <g
         id="Calque.__213">
        <g
           id="shape47">
          <path
             id="path34"
             fill="#CBDEE3"
             fill-opacity="1"
             d="M530.5,379.1 L530.5,353.1 364.5,353.1 364.5,379.1 530.5,379.1z M530.5,682.1 L530.5,656.1 364.5,656.1 364.5,682.1 530.5,682.1z" />
        </g>
      </g>
    </g>
  </g>
  <g
     id="Calque.__205">
    <g
       id="Symbole.__2034_1"
       overflow="visible">
      <g
         id="Calque.__214">
        <g
           id="shape48">
          <path
             id="path35"
             fill="#3C5687"
             fill-opacity="1"
             d="M809.87,391.327 L803.241,374.485 C798.351,362.062 789.728,358.31 777.305,363.199 L693.559,396.163 C681.137,401.052 677.385,409.676 682.274,422.098 L688.903,438.94 809.87,391.327z M900.441,676.037 C912.863,671.148 916.615,662.524 911.726,650.102 L817.195,409.937 696.229,457.55 790.759,697.715 C795.649,710.138 804.272,713.89 816.695,709.001 L900.441,676.037z M854.042,587.37 C866.296,592.703 874.91,601.617 879.818,614.086 884.725,626.555 884.499,638.949 879.167,651.204 873.835,663.458 864.92,672.072 852.451,676.979 839.982,681.887 827.588,681.661 815.334,676.329 803.079,670.997 794.466,662.082 789.558,649.613 784.65,637.144 784.876,624.75 790.209,612.496 795.541,600.241 804.456,591.628 816.924,586.72 829.393,581.812 841.787,582.038 854.042,587.37z" />
          <path
             id="path36"
             fill="#5377BB"
             fill-opacity="1"
             d="M817.195,409.937 L809.87,391.327 688.903,438.94 696.229,457.55 817.195,409.937z" />
          <path
             id="path37"
             fill="#597BB8"
             fill-opacity="1"
             d="M854.042,587.37 C841.787,582.038 829.393,581.812 816.924,586.72 804.456,591.628 795.541,600.241 790.209,612.496 784.876,624.75 784.65,637.144 789.558,649.613 794.466,662.082 803.079,670.997 815.334,676.329 827.588,681.661 839.982,681.887 852.451,676.979 864.92,672.072 873.835,663.458 879.167,651.204 884.499,638.949 884.725,626.555 879.818,614.086 874.91,601.617 866.296,592.703 854.042,587.37z" />
        </g>
      </g>
    </g>
  </g>
  <g
     id="head">
    <g
       id="Symbole.__2036_1"
       overflow="visible">
      <g
         id="Calque.__215">
        <g
           id="shape49">
          <path
             id="path38"
             fill="#5B574E"
             fill-opacity="1"
             d="M566.824,253.662 C562.465,250.284 557.557,248.94 552.051,249.638 L548.083,250.141 Q539.848,251.184 534.78,257.723 C531.402,262.082 530.058,266.99 530.756,272.496 L575.53,625.82 619.181,620.289 574.407,266.965 C573.709,261.459 571.183,257.041 566.824,253.662z" />
          <path
             id="path39"
             fill="#8E887B"
             fill-opacity="1"
             d="M611.917,722.059 C617.423,721.362 621.841,718.836 625.22,714.477 628.598,710.118 629.942,705.21 629.244,699.704 L619.181,620.289 575.53,625.82 585.593,705.235 C586.291,710.741 588.817,715.159 593.176,718.538 597.535,721.916 602.443,723.26 607.949,722.562 L611.917,722.059z" />
        </g>
      </g>
    </g>
    <g
       id="Symbole.__2036_2"
       overflow="visible">
      <g
         id="Calque.__216">
        <g
           id="shape50">
          <path
             id="path40"
             fill="#5B574E"
             fill-opacity="1"
             d="M623.31,255.355 C618.626,252.443 613.605,251.612 608.201,252.873 L604.305,253.782 Q596.222,255.667 591.854,262.693 C588.942,267.378 588.111,272.398 589.372,277.803 L670.291,624.638 713.14,614.641 632.222,267.806 C630.961,262.401 627.994,258.267 623.31,255.355z" />
          <path
             id="path41"
             fill="#8E887B"
             fill-opacity="1"
             d="M716.395,716.618 C721.8,715.357 725.934,712.391 728.846,707.707 731.758,703.022 732.589,698.002 731.328,692.597 L713.14,614.641 670.291,624.638 688.478,702.594 C689.739,707.999 692.706,712.133 697.39,715.045 702.074,717.957 707.095,718.788 712.499,717.527 L716.395,716.618z" />
        </g>
      </g>
    </g>
  </g>
</svg>
